src/assets/selectIcons/amuleto_2.svg

<svg xmlns="http://www.w3.org/2000/svg" viewBox="0 0 512 512"><path d="M0 0h512v512H0z"/><path fill="#fff" d="M256.6 20.4c24.7 54-45.4 65.3-41 125.6l-43.4-39.6 14.8 67.2-65.8-23.7 39.5 56.3-69.79 3.3 55.69 35.4c-55.37 26.2-75.96-35-126.21 10.5 54.04-24.7 65.33 45.4 125.61 41l-39.6 43.4 67.2-14.8-23.7 65.8 56.3-39.5 3.3 69.7 35.4-55.6c26.2 55.6-35 75.6 10.5 126.6-24.7-54 45.4-66 41-126l43.4 40-14.8-67.6 65.8 23.7-39.5-56.3 69.8-3.3-55.7-35.4c55.4-26.2 76 35 126.2-10.5-54 24.7-65.3-45.4-125.5-41l39.5-43.4-67.2 14.8 23.7-65.8-56.3 39.5-3.3-69.8-35.4 55.7c-26.2-55.4 35-76-10.5-126.2zm-.6 134.1c56 0 101.5 45.5 101.5 101.5S312 357.5 256 357.5 154.5 312 154.5 256 200 154.5 256 154.5zm0 20.8c-44.5 0-80.7 36.2-80.7 80.7s36.2 80.7 80.7 80.7 80.7-36.2 80.7-80.7-36.2-80.7-80.7-80.7zm-35.6 33.6c18.1-.3 35.6 12.3 35.6 29.6V295l-18.6-6.5s29.5-70.3-17.7-70.3c-18.6 0-30.8 9.5-30.8 9.5 7.9-13 19.8-18.6 31.5-18.8zm-2.1 19.3c10.1-.1 19.9 4.6 22.9 17.2h-12.5c.3.7.5 1.5.5 2.3 0 4.6-5.7 8.3-12.8 8.3-7 0-12.7-3.7-12.7-8.3 0-.8.2-1.6.5-2.3h-12.5c0-8.2 10.7-15.4 22.2-16.9l4.4-.3zm75.4 0c13.1.1 26.6 8 26.6 17.2h-12.5c.3.7.5 1.5.5 2.3 0 4.6-5.7 8.3-12.7 8.3-7.1 0-12.8-3.7-12.8-8.3 0-.8.2-1.6.5-2.3h-12.5c2.7-11.7 11.4-16.6 20.8-17.1l2.1-.1zm-44.8 76.7c2.2 0 4.4.7 7.1 3 8.5-7.4 12.7 1.4 26.8 1.4 0 0-10.6 8.6-26.8 8.6-16.2 0-26.8-8.6-26.8-8.6 9.7 0 14.7-4.2 19.7-4.4z"/></svg>

<?xml version="1.0" encoding="UTF-8" standalone="no"?>
<!DOCTYPE svg PUBLIC "-//W3C//DTD SVG 1.1//EN" "http://www.w3.org/Graphics/SVG/1.1/DTD/svg11.dtd">
<svg width="100%" height="100%" viewBox="0 0 512 512" version="1.1" xmlns="http://www.w3.org/2000/svg" xmlns:xlink="http://www.w3.org/1999/xlink" xml:space="preserve" xmlns:serif="http://www.serif.com/" style="fill-rule:evenodd;clip-rule:evenodd;stroke-linejoin:round;stroke-miterlimit:2;">
    <rect x="0" y="0" width="512" height="512" style="fill-rule:nonzero;"/>
    <path d="M256.6,20.4C281.3,74.4 211.2,85.7 215.6,146L172.2,106.4L187,173.6L121.2,149.9L160.7,206.2L90.91,209.5L146.6,244.9C91.23,271.1 70.64,209.9 20.39,255.4C74.43,230.7 85.72,300.8 146,296.4L106.4,339.8L173.6,325L149.9,390.8L206.2,351.3L209.5,421L244.9,365.4C271.1,421 209.9,441 255.4,492C230.7,438 300.8,426 296.4,366L339.8,406L325,338.4L390.8,362.1L351.3,305.8L421.1,302.5L365.4,267.1C420.8,240.9 441.4,302.1 491.6,256.6C437.6,281.3 426.3,211.2 366.1,215.6L405.6,172.2L338.4,187L362.1,121.2L305.8,160.7L302.5,90.9L267.1,146.6C240.9,91.2 302.1,70.6 256.6,20.4ZM256,154.5C312,154.5 357.5,200 357.5,256C357.5,312 312,357.5 256,357.5C200,357.5 154.5,312 154.5,256C154.5,200 200,154.5 256,154.5ZM256,175.3C211.5,175.3 175.3,211.5 175.3,256C175.3,300.5 211.5,336.7 256,336.7C300.5,336.7 336.7,300.5 336.7,256C336.7,211.5 300.5,175.3 256,175.3ZM220.4,208.9C238.5,208.6 256,221.2 256,238.5L256,295L237.4,288.5C237.4,288.5 266.9,218.2 219.7,218.2C201.1,218.2 188.9,227.7 188.9,227.7C196.8,214.7 208.7,209.1 220.4,208.9ZM218.3,228.2C228.4,228.1 238.2,232.8 241.2,245.4L228.7,245.4C229,246.1 229.2,246.9 229.2,247.7C229.2,252.3 223.5,256 216.4,256C209.4,256 203.7,252.3 203.7,247.7C203.7,246.9 203.9,246.1 204.2,245.4L191.7,245.4C191.7,237.2 202.4,230 213.9,228.5L218.3,228.2ZM293.7,228.2C306.8,228.3 320.3,236.2 320.3,245.4L307.8,245.4C308.1,246.1 308.3,246.9 308.3,247.7C308.3,252.3 302.6,256 295.6,256C288.5,256 282.8,252.3 282.8,247.7C282.8,246.9 283,246.1 283.3,245.4L270.8,245.4C273.5,233.7 282.2,228.8 291.6,228.3L293.7,228.2ZM248.9,304.9C251.1,304.9 253.3,305.6 256,307.9C264.5,300.5 268.7,309.3 282.8,309.3C282.8,309.3 272.2,317.9 256,317.9C239.8,317.9 229.2,309.3 229.2,309.3C238.9,309.3 243.9,305.1 248.9,304.9Z" style="fill:rgb(255,189,0);fill-rule:nonzero;"/>
</svg>
